X: 86
T: No_24_He_Walked_Up_the_Slippery_Rocks.krn
N: Derived from No_24_He_Walked_Up_the_Slippery_Rocks.krn
%%abc-version 2.0
%%abcx-abcm2ps-target-version 5.9.1 (29 Sep 2008)
%%abc-creator hum2abc beta
%%abcx-conversion-date 2019/03/15 08:37:56
%%humdrum-veritas 1330642694
%%humdrum-veritas-data 4172928795
%%linebreak <none>
%%barnumbers 0
L: 1/8
M: 2/4
K: C clef=bass
[K:clef=bass][M:2/4]A,3/A,/ A,3/A,/ ||  
[M:3/4]^D3/^C/ B,/B,3/ (B,^A,) ||  
[M:2/4]^G,3/G,/ G,3/E,/ | 
^G,3/G,/ G,3/G,/ ||  
[M:3/4](^A,3/^G,/) (G,3/E,/) (G,3/E,/) | 
^G,2G,2z2 ]|:  
[M:2/4]B,3/B,/ B,3/B,/ ||  
[M:3/4]^C3/B,/ B,/^A,3/ (A,^G,) ||  
[M:2/4]^G,3/G,/ (G,3/E,/) | 
^G,3/G,/ G,3/G,/ ||  
[M:3/4](^A,3/^G,/) (G,3/E,/) G,3/E,/ | 
^G,2G,2z2 ||  
[M:2/4]^G,2A,3/A,/ | 
(3A,^G,-G,-G,2 | 
^G,4 | 
^G,2A,3/A,/ | 
(3A,^G,G,G,2 | 
^G,2z2 :|]  



